X:1
T:Title
%%score 1 { ( 2 5 ) | ( 3 4 ) }
L:1/8
M:4/4
K:Ab
V:1 treble nm="Akkordion"
V:2 treble nm="Grand Piano"
V:5 treble 
V:3 bass 
V:4 bass 
V:1
 z4 z2[Q:1/4=108] [CE]>[CE] | [CF]2 [CE]2 [CF]2 [CE]2 | [DG]2 [DG]4 [DG]>[DA] | %3
 [DB]2 [DF]2 [DF]2 [DG]2 | [CA]6 [CE]>[CE] | [CF]2 [CE]2 [CF]2 [CE]2 | [DG]2 [DG]4 E>[EF] | %7
 [EG]2 [Fd]2 [Ec]2 [DB]2 | [CA]6 z2 | [EG]3 [EG] [FA][EG][=DF][EG] | [GB]2 [FA]4 [FA][EG] | %11
 [=DF]2 [Ac]2 [GB]3 [FA] | [EG]6 [EG][FA] | [GB]2 [EG][FA] [GB]2 [Be]2 | [B=d]2 [Ac]4 [Ac][Ac] | %15
 [GB]2 [FA][EG] [FA]2 [=DF]2 |[M:7/8] E-E-E- E- E3 |[M:6/8][Q:1/4=99] z6 | z6 | z6 |[M:5/8] z5 | %21
[M:1/8] z | z |[M:3/4] z6 | z6 | z6 |[M:2/4] z4 | z4 |] %28
V:2
 z4 z2 E>E | [CF]2 [CE]2 [CF]2 [CE]2 | [DEG]2 [DEG]4 z2 | DEGE DEGE | [CA]6 E>E | %5
 [CF]2 [CE]2 [CF]2 [CE]2 | [DEG]2 [DEG]4 z2 | DEFE DEGE | [CA]CEc A4 | %9
 z D[K:treble]EG[K:bass] z G,B,E | z B,[K:treble]AB,[K:bass] z B,[K:treble]FE | =DB,AB, GB,GF | %12
 EG,B,E G2 GA | [GB]B,GA [GB]E[Be]E | [B=d]EcE [Ac]2 z2 | B,GFE F[K:bass]B,A,B, | %16
[M:7/8] [E,E]2- [E,-CE-]2 [E,DE]3 |[M:6/8][K:treble] d2 z/ A,/- A,/A,A,[DB]/- | %18
 [DB]/A[K:bass]A,A,/- A,<.A, z | z/[K:treble] [CEA][GB]3/2 [GB]/[GB][GB][FA]/- | %20
[M:5/8] [FA]<.[GB] z/ EEe/- |[M:1/8] e- | e/c/- |[M:3/4] c/[Fd][Fd]/- [Fd]/[Fd][DF]/- [DF]>[Fd]- | %24
 [Fd]/[Ec][Ec]/- [Ec]/[Ec][CE]/- [CE]>[CEA]- | [CEA]<G G/GG/- G/cB/- |[M:2/4] B<[CA]- [CA]2- | %27
 [CA]2 z2 |] %28
V:3
 z4 z2 C>C | A,,E,A,E, A,,E,A,E, | B,,E,B,E, B,,E,B,E, | E,,4 E,4 | A,,E,A,E, A,,2 C>C | %5
 A,,E,A,E, A,,E,A,E, | B,,E,B,E, B,,E,B,E, | E,,4 E,4 | z4 C4 | E,,4 E,,4 | z2 .F2 B,,,4 | %11
 [B,,,B,,]4 [=D,,=D,]4 | [E,,E,]6[K:treble] EF | z2 EF [E,,E,]2 [G,,G,]2 | [A,,A,]4 z4 | %15
 [B,,,B,,]4 [B,,,B,,]4 |[M:7/8] z2 A,2 B,3 |[M:6/8] [E,G,E]3/2[A,,A,]A,,/- A,,/A,,A,,[A,,A,]/- | %18
 [A,,A,]/CA,,C,/- C,/E,A,3/2- | A,/A,[E,E]3/2 [E,E]/[E,E][E,E][E,E]/- | %20
[M:5/8] [E,E]/[E,E][A,E]A,A,[K:treble][A,CA]/- |[M:1/8] [A,CA]- | [A,CA]/[A,_G]/- | %23
[M:3/4] [A,G]/[K:bass][D,A,][D,A,]/- [D,A,]/[D,A,][D,A,]/- [D,A,]>[D,A,]- | %24
 [D,A,]/[A,,A,][A,,A,]/- [A,,A,]/[A,,A,][A,,A,]/- [A,,A,]>A,,- | %25
 A,,<[E,B,E] [E,B,E]/[E,B,E][E,B,E]/- [E,B,E]/[E,G,E][E,G,D]/- | %26
[M:2/4] [E,G,D]<[A,,A,]- [A,,A,]2- | [A,,A,]2 z2 |] %28
V:4
 x8 | x8 | x8 | x8 | x8 | x8 | x8 | x8 | [A,,E,A,]8 | x8 | =D,,4 z4 | x8 | x6[K:treble] x2 | %13
 [E,,E,]4 z4 | z2 .A2 [A,,,A,,]4 | x8 |[M:7/8] E,,-E,,-E,,- E,,- E,,3 |[M:6/8] x6 | x6 | x6 | %20
[M:5/8] x9/2[K:treble] x/ |[M:1/8] x | x |[M:3/4] x/[K:bass] x11/2 | x6 | x6 |[M:2/4] x4 | x4 |] %28
V:5
 x8 | x8 | x8 | x8 | x8 | x8 | x8 | x8 | x8 | E,4[K:treble][K:bass] E,4 | %10
 =D,4[K:treble][K:bass] B,,4[K:treble] | x8 | x8 | x8 | x8 | x5[K:bass] x3 | %16
[M:7/8] [G,B,]2 z z z z2 |[M:6/8][K:treble] z z/ [Ec]3/2- [Ec]2- [Ec]/ z/ | %18
 z z/[K:bass] [CE]3/2- [CE]3- | [CE]3[K:treble] z3 |[M:5/8] z z/ [Ac]/- [Ac]2- [Ac]/ z/ | %21
[M:1/8] x | x |[M:3/4] x6 | x6 | x6 |[M:2/4] x4 | x4 |] %28

